X: 1
T: Brose and Butter
R: slipjig
O: Gow
B: Hunter p.284; SRSNH 5.31
D:
Z: John Chambers <jc@trillian.mit.edu>
M: 9/8
L: 1/8
K: ADor
|: "Am"cde ~A2A c2A | cde ~A2A "G"dBG | "Am"cde ~A2A ABc | "G"B2G Gge dBG :|
|: "C"cde ege ege | cde ege "G"dBG |  "C"cde ege efg | "D"f2d dge "G"dBG :|
x8 x8 x8 x8 x8 x8 x8 x8 |
x8 x8 x8 x8 x8 x8 x8 x8 |
x8 x8 x8 x8 x8 x8 x8 x8 |
x8 x8 x8 x8 x8 x8 x8 x8 |
x8 x8 x8 x8 x8 x8 x8 x8 |
x8 x8 x8 x8 x8 x8 x8 x8 |
